X:3580
T:Le buron du Ché (M. Esbelin)
O:england
S:Esbelin/Pauvert
M:3/8
L:1/16
K:C
cd|e2edef|d2dcBc|d2dBdf|e2c2d2|\
e3def|d3cBc|d2~d2B2|c4:|
|:ef|g^fgage|d2dcBc|d2dBdf|e2d2ef|\
g^fgage|d2dcBc|d2~d2B2|1 g4:|2 c4||


